dist/svg/wifi.svg

<!-- Generated by Trend Micro Style Portal -->
<svg version="1.1" xmlns="http://www.w3.org/2000/svg" width="16" height="16" viewBox="0 0 16 16">
  <title>wifi</title>
  <path fill="rgb(34,34,34)" d="M12.8 8.5l-1.6 1.2c-0.7-1-1.9-1.7-3.2-1.7s-2.5 0.7-3.3 1.7l-1.5-1.2c1.1-1.5 2.8-2.5 4.8-2.5s3.7 1 4.8 2.5zM1.6 7.2c1.4-1.9 3.8-3.2 6.4-3.2s5 1.3 6.4 3.2l1.6-1.2c-1.8-2.4-4.7-4-8-4s-6.2 1.6-8 4l1.6 1.2zM8 14c1.1 0 2-0.9 2-2s-0.9-2-2-2-2 0.9-2 2 0.9 2 2 2z"></path>
</svg>

<svg width="16" height="16" viewBox="0 0 16 16" fill="rgb(34, 34, 34)" xmlns="http://www.w3.org/2000/svg"><title>wifi</title><path d="M12.8 8.5L11.2 9.7C10.5 8.7 9.3 8 8 8C6.7 8 5.5 8.7 4.7 9.7L3.2 8.5C4.3 7 6 6 8 6C10 6 11.7 7 12.8 8.5ZM1.6 7.2C3 5.3 5.4 4 8 4C10.6 4 13 5.3 14.4 7.2L16 6C14.2 3.6 11.3 2 8 2C4.7 2 1.8 3.6 0 6L1.6 7.2ZM8 14C9.1 14 10 13.1 10 12C10 10.9 9.1 10 8 10C6.9 10 6 10.9 6 12C6 13.1 6.9 14 8 14Z" fill="rgb(34, 34, 34)" fill-opacity="1.00"/></svg>
